icon-svg/stage-uplight.svg

<svg xmlns="http://www.w3.org/2000/svg" fill="#44739e" viewBox="0 0 24 24"><path d="M11.277 9.908c.111.182.106.219-.029.219-.248.017-.3-.633.029-.219m-2.885 2.198c.1.087.056.31-.059.31-.226.002-.323-.527.059-.31m2.46-1.532a.292.292 0 0 0 .037.215c.114.3-.551.026-.256-.2.122-.127.267-.139.219-.015m6.338 5.31c.015.021-.387.266-.273.075.042-.096.273-.159.273-.075M11.879 7.48c.221.025.278.386-.031.357-.17 0-.332-.439-.178-.484a.085.085 0 0 0 .044-.123c-.047-.109.26-.286.328-.189s-.509.444-.163.439m4.771 7.849a.156.156 0 0 1-.022.157c-.183.214-.182-.305.022-.157m-8.371-3.691c.115-.19.411-.34.409-.208.103.163-.602.512-.409.208m4.026-.916c-.018 0 .081.017.065.049zm.741-2.169c-.107 0-.04-.163.081-.2.15-.032-.014.222-.081.2M7.2 10.914c-.923.97.11-.99.316-.632.063.144-.182.632-.316.632M9.517 9.2c.193.681-.94-.093-.106-.623.34-.207.432-.005.169.2-.188.157-.199.223-.063.423m9.218.805v-.008s.002.008 0 .008M5.043 13.443c.082-.358.42-.229.11.242-.135.251-.135.254.081.392.313.267.25.559.808.719a1.776 1.776 0 0 0 .075 1.569c.451.812 1.473.605 1.833 1.525l.249.43c-.076.276-.23.832-.306 1.109.887 1.818 1.074 1.539 2.952 2 .917-.6 2.929-1.907 3.745-2.612a10.78 10.78 0 0 0 1.645-1.917c.218.233 1.17 1.239 1.423 1.451.333-.181.9-.653 1.415-.986.56-.369.561-.257-.007-.926-.686-.817-1.1-1.376-1.819-2.188l.148-.242c.087-.143.192-.228.255-.207.149.051.134-.081-.018-.156-.11-.055-.106-.083.029-.237.471-.436.179-.8.7-.737.15.039.153.033.031-.08-.226-.207.2-1.139.476-1.056.165.049.114-.114-.062-.2-.649-.432 1.125-.944-.074-1.338a21.76 21.76 0 0 1-2.962-1.867c-.006-.026-1.8-.928-1.613-1.025a.127.127 0 0 0-.084-.159c-.206-.1-.208-1.106.242-.546.426.364 0 .679.646.979 1.026.783 2.707 1.929 3.767 2.61.1-.16.613-.717.551-.761-1.23-.615-3.011-2.019-4.338-2.823-1.573-.792-.946-2-.426-.768.485.766.809.615 2.284 1.837 1.978 1.476 2.25 1.579 2.251.854-1.367-.931-3.78-2.679-5.068-3.6-.121.042-.3-.279-.259-.464.48-.08.412.576 1 .81.964.652 2.739 2.107 3.7 2.716.382.019.272-.438-.246-.61-1.047-.554-2.979-2.164-.356-.269.975.5-1.352-1.071-1.358-1.06-.154-.111-.252-.162-.218-.114.114.164 0 .089-.482-.31-.224-.259-2.147-1.398-1.951-1.428.027-.024.225.079.439.229 1.563 1.084-.694-.733-.5-.329.1.137-.259.071-.409-.075-.121-.119-.13-.16-.043-.207.172-.094.026-.233-.154-.147-.754.116-.505-.589-.852-.285-.071.1-.536.058-.585-.056-.034-.078-.064-.078-.173 0a4.74 4.74 0 0 1-1.618.525 3.4 3.4 0 0 0-1.064.9c0 .139-.142.249-.226.174-.077-.685-3.468 3.718-3.144 4.141a5.01 5.01 0 0 0-.826 2.722c-.148.443.143 2.287.386 1.851m3.965-3.517c-.358-.4-.017-1.31.578-1.537 1.803-.641.098 2.343-.578 1.537m-.476-2.8a1.7 1.7 0 0 0 .3-.044c1.137.08-1.1 2.974-1.111.979 0-.29.367-.862.552-.862.164 0-.45.551-.4.556-.085 1.061.047.509.34.445.179 0 .4-.3.249-.342s-.114-.148.074-.36c.34-.258-.209-.322-.004-.377Zm-.976 2.7c1.267-.3-.233 2.261-.71 1.571-.344-.2.085-1.7.467-1.483.008.1-.247.133-.243.225.072.065.375-.178.511-.1.301.079-.054-.139-.025-.213m.07 5.449a2.24 2.24 0 0 1-.637-.248c.057-.127.692.258.637.248m.218-2.375c-.7-.574.909-2.519 1.36-1.473.213.786-.928 2.02-1.36 1.473m.709.971c.13-.018.182.563.015.19-.031-.084-.037-.169-.015-.189Zm.2-.273c.381-.606.449.551.038.3-.107-.098-.114-.15-.037-.298Zm2.338-2.685c-.444.551-.834 1.118-.963-.042-.113-1.471 2.897-1.94.964.043zm-.981-3.762c-.158-.14-.162-.245-.009-.245.172-.006.218-.2.389-.235.336-.17-.029-.14-.021-.337-.064-.229.513-.063.486-.259.077-.211-.578.066-.456-.135.174-.353-.388.312-.434.2.108-.241.681-.735 1.012-.7.933-.078-.062 2.185-.966 1.712Zm1.638 1.366c-.632.14-.594-1.142.05-1.676 1.742-.951 1.167 1.39-.049 1.677zm.988-4.544c-.581.354-.234-.6.189-.31.2.211-.125.209-.188.311zm.616 4.327c.356.133-.568.626-.453.222a.281.281 0 0 1 .453-.222m.3-.357c.143.2-.691.1-.358-.032.106.003.306-.119.361.03zm-.169-.706c-.064-.056.119-.235.175-.124.06.08-.095.187-.172.122zm.425.485c-.245.059-.065-.319.076-.1.028.029-.007.078-.073.098Zm-.121.542c.232-.173 4.68 3.023 4.529 2.8-.13-.083-4.526-2.764-4.526-2.802Zm2.895 4.8c.16 0 .809.543.731.612.021.087-.996-.644-.728-.616zm.586 2.809c0 .221-.3.39-.455.254-.274-.209.475-.657.458-.258zm-.429-.545c.053.124-.162.312-.358.312-.481-.093.24-.678.361-.316zm-4.469-4.557c-.161.6.4.174-.374 1.058-.436.41-.5.969-.856.8-.192-.1-.9.485-.847.7.043.168-.149.318-.282.221-.192-.188-.75.5-.783.065a.163.163 0 0 1 .091-.223A12.39 12.39 0 0 0 12.854 9c.21-.357.6-.062.334.258-.135.233-.183.558-.055.379a37.6 37.6 0 0 1 4.8 3.081c0 .091-4.175-2.672-4.435-2.854-.236-.293-1.054.591-1.121.891.608.319 3.187 1.743 3.4 1.8-.277.236-3.234-1.643-3.407-1.784m-1.847 2.439c.474.562 4.444 2.093 5.157 2.5-.798-.463-4.831-1.646-5.157-2.5m.109 1.722a16.14 16.14 0 0 1 3.374 1.037c-.955-.279-.811-.316-2.928-.862-.357-.096-.557-.175-.446-.175m-.621 3.745A3.693 3.693 0 0 0 8.5 17.146a1.826 1.826 0 0 1-1.225-.683c-.021-.117.192-.45.151-.469-.257-.061-.984-.245-1.249-.309l1.249.309c.025.006.207-.593.273-.567.664-.057 3.628 1.11 4.429 1.139-.169-.24 1.224.494 1.093-.07a15.1 15.1 0 0 0-2.105-.683c-.845-.231-1.133-.34-.729-.276a22.4 22.4 0 0 1 3.46 1.116c-.192 1.148-2.939 2.712-3.9 3.48-.338-.157.136-1.199.064-1.456m1.39-2.431c.446.182-.227 0-.283-.044-.203-.102.024-.066.282.044zm-2.55 3.767c-.086-.309 1.044.415.545.416-.196 0-.545-.264-.545-.416M8.84 17.82a1.205 1.205 0 0 1-.618-.382c-.129-.363 1.268.514.618.382M7.475 6.07c.01-.078 1.3-1.481 1.418-1.16-.125.19.3-.246.282 0 0 .042.04.054.089.027.241-.131-.123.26-.548.589a8.64 8.64 0 0 0-1.707 1.56c-.124.226-1.446 3.612-1.315 2.321 0-.116-.035-.21-.078-.21-.311-.341 1.605-2.62 1.859-3.127"/></svg>

<?xml version="1.0" encoding="UTF-8"?>
<svg width="24px" fill="#44739e" height="24px" viewBox="0 0 24 24" version="1.1" xmlns="http://www.w3.org/2000/svg" xmlns:xlink="http://www.w3.org/1999/xlink">
            <path d="m 11.277,9.908 c 0.111,0.182 0.106,0.219 -0.029,0.219 -0.248,0.017 -0.3,-0.633 0.029,-0.219 z m -2.885,2.198 c 0.1,0.087 0.056,0.31 -0.059,0.31 -0.226,0.002 -0.323,-0.527 0.059,-0.31 z m 2.46,-1.532 a 0.292,0.292 0 0 0 0.037,0.215 c 0.114,0.3 -0.551,0.026 -0.256,-0.2 0.122,-0.127 0.267,-0.139 0.219,-0.015 z m 6.338,5.31 c 0.015,0.021 -0.387,0.266 -0.273,0.075 0.042,-0.096 0.273,-0.159 0.273,-0.075 z M 11.879,7.48 c 0.221,0.025 0.278,0.386 -0.031,0.357 -0.17,0 -0.332,-0.439 -0.178,-0.484 A 0.085,0.085 0 0 0 11.714,7.23 C 11.667,7.121 11.974,6.944 12.042,7.041 12.11,7.138 11.533,7.485 11.879,7.48 Z m 4.771,7.849 a 0.156,0.156 0 0 1 -0.022,0.157 C 16.445,15.7 16.446,15.181 16.65,15.329 Z M 8.279,11.638 c 0.115,-0.19 0.411,-0.34 0.409,-0.208 0.103,0.163 -0.602,0.512 -0.409,0.208 z m 4.026,-0.916 c -0.018,0 0.081,0.017 0.065,0.049 z m 0.741,-2.169 c -0.107,0 -0.04,-0.163 0.081,-0.2 0.15,-0.032 -0.014,0.222 -0.081,0.2 z M 7.2,10.914 C 6.277,11.884 7.31,9.924 7.516,10.282 7.579,10.426 7.334,10.914 7.2,10.914 Z M 9.517,9.2 C 9.71,9.881 8.577,9.107 9.411,8.577 9.751,8.37 9.843,8.572 9.58,8.777 9.392,8.934 9.381,9 9.517,9.2 Z m 9.218,0.805 V 9.997 c 0,0 0.002,0.008 0,0.008 z M 5.043,13.443 c 0.082,-0.358 0.42,-0.229 0.11,0.242 -0.135,0.251 -0.135,0.254 0.081,0.392 0.313,0.267 0.25,0.559 0.808,0.719 a 1.776,1.776 0 0 0 0.075,1.569 v 0 C 6.568,17.177 7.59,16.97 7.95,17.89 l 0.249,0.43 c -0.076,0.276 -0.23,0.832 -0.306,1.109 0.887,1.818 1.074,1.539 2.952,2 0.917,-0.6 2.929,-1.907 3.745,-2.612 v 0 A 10.782,10.782 0 0 0 16.235,16.9 c 0.218,0.233 1.17,1.239 1.423,1.451 0.333,-0.181 0.9,-0.653 1.415,-0.986 0.56,-0.369 0.561,-0.257 -0.007,-0.926 -0.686,-0.817 -1.1,-1.376 -1.819,-2.188 l 0.148,-0.242 c 0.087,-0.143 0.192,-0.228 0.255,-0.207 0.149,0.051 0.134,-0.081 -0.018,-0.156 -0.11,-0.055 -0.106,-0.083 0.029,-0.237 0.471,-0.436 0.179,-0.8 0.7,-0.737 0.15,0.039 0.153,0.033 0.031,-0.08 -0.226,-0.207 0.2,-1.139 0.476,-1.056 0.165,0.049 0.114,-0.114 -0.062,-0.2 -0.649,-0.432 1.125,-0.944 -0.074,-1.338 A 21.764,21.764 0 0 1 15.77,8.131 C 15.764,8.105 13.97,7.203 14.157,7.106 A 0.127,0.127 0 0 0 14.073,6.947 c -0.206,-0.1 -0.208,-1.106 0.242,-0.546 0.426,0.364 0,0.679 0.646,0.979 1.026,0.783 2.707,1.929 3.767,2.61 0.1,-0.16 0.613,-0.717 0.551,-0.761 -1.23,-0.615 -3.011,-2.019 -4.338,-2.823 -1.573,-0.792 -0.946,-2 -0.426,-0.768 0.485,0.766 0.809,0.615 2.284,1.837 1.978,1.476 2.25,1.579 2.251,0.854 -1.367,-0.931 -3.78,-2.679 -5.068,-3.6 -0.121,0.042 -0.3,-0.279 -0.259,-0.464 0.48,-0.08 0.412,0.576 1,0.81 0.964,0.652 2.739,2.107 3.7,2.716 C 18.805,7.81 18.695,7.353 18.177,7.181 17.13,6.627 15.198,5.017 17.821,6.912 18.796,7.412 16.469,5.841 16.463,5.852 16.309,5.741 16.211,5.69 16.245,5.738 c 0.114,0.164 0,0.089 -0.482,-0.31 C 15.539,5.169 13.616,4.03 13.812,4 13.839,3.976 14.037,4.079 14.251,4.229 15.814,5.313 13.557,3.496 13.751,3.9 13.851,4.037 13.492,3.971 13.342,3.825 13.221,3.706 13.212,3.665 13.299,3.618 13.471,3.524 13.325,3.385 13.145,3.471 12.391,3.587 12.64,2.882 12.293,3.186 12.222,3.286 11.757,3.244 11.708,3.13 11.674,3.052 11.644,3.052 11.535,3.13 A 4.743,4.743 0 0 1 9.917,3.655 3.4,3.4 0 0 0 8.853,4.555 C 8.853,4.694 8.711,4.804 8.627,4.729 8.55,4.044 5.159,8.447 5.483,8.87 A 5.009,5.009 0 0 0 4.657,11.592 C 4.509,12.035 4.8,13.879 5.043,13.443 Z M 9.008,9.926 C 8.65,9.526 8.991,8.616 9.586,8.389 11.389,7.748 9.684,10.732 9.008,9.926 Z m -0.476,-2.8 a 1.693,1.693 0 0 0 0.3,-0.044 c 1.137,0.08 -1.1,2.974 -1.111,0.979 0,-0.29 0.367,-0.862 0.552,-0.862 0.164,0 -0.45,0.551 -0.4,0.556 C 7.788,8.816 7.92,8.264 8.213,8.2 8.392,8.2 8.613,7.9 8.462,7.858 8.311,7.816 8.348,7.71 8.536,7.498 8.876,7.24 8.327,7.176 8.532,7.121 Z m -0.976,2.7 c 1.267,-0.3 -0.233,2.261 -0.71,1.571 -0.344,-0.2 0.085,-1.7 0.467,-1.483 0.008,0.1 -0.247,0.133 -0.243,0.225 0.072,0.065 0.375,-0.178 0.511,-0.1 C 7.882,10.118 7.527,9.9 7.556,9.826 Z m 0.07,5.449 A 2.24,2.24 0 0 1 6.989,15.027 C 7.046,14.9 7.681,15.285 7.626,15.275 Z M 7.844,12.9 c -0.7,-0.574 0.909,-2.519 1.36,-1.473 0.213,0.786 -0.928,2.02 -1.36,1.473 z m 0.709,0.971 c 0.13,-0.018 0.182,0.563 0.015,0.19 C 8.537,13.977 8.531,13.892 8.553,13.872 Z m 0.2,-0.273 c 0.381,-0.606 0.449,0.551 0.038,0.3 C 8.684,13.8 8.677,13.748 8.754,13.6 Z m 2.338,-2.685 c -0.444,0.551 -0.834,1.118 -0.963,-0.042 -0.113,-1.471 2.897,-1.94 0.964,0.043 z M 10.11,7.151 C 9.952,7.011 9.948,6.906 10.101,6.906 10.273,6.9 10.319,6.706 10.49,6.671 10.826,6.501 10.461,6.531 10.469,6.334 10.405,6.105 10.982,6.271 10.955,6.075 11.032,5.864 10.377,6.141 10.499,5.94 10.673,5.587 10.111,6.252 10.065,6.14 10.173,5.899 10.746,5.405 11.077,5.44 12.01,5.362 11.015,7.625 10.111,7.152 Z m 1.638,1.366 c -0.632,0.14 -0.594,-1.142 0.05,-1.676 1.742,-0.951 1.167,1.39 -0.049,1.677 z m 0.988,-4.544 c -0.581,0.354 -0.234,-0.6 0.189,-0.31 0.2,0.211 -0.125,0.209 -0.188,0.311 z M 13.352,8.3 c 0.356,0.133 -0.568,0.626 -0.453,0.222 A 0.281,0.281 0 0 1 13.352,8.3 Z m 0.3,-0.357 c 0.143,0.2 -0.691,0.1 -0.358,-0.032 0.106,0.003 0.306,-0.119 0.361,0.03 z M 13.483,7.237 c -0.064,-0.056 0.119,-0.235 0.175,-0.124 0.06,0.08 -0.095,0.187 -0.172,0.122 z m 0.425,0.485 C 13.663,7.781 13.843,7.403 13.984,7.622 14.012,7.651 13.977,7.7 13.911,7.72 Z m -0.121,0.542 c 0.232,-0.173 4.68,3.023 4.529,2.8 C 18.186,10.981 13.79,8.3 13.79,8.262 Z m 2.895,4.8 c 0.16,0 0.809,0.543 0.731,0.612 0.021,0.087 -0.996,-0.644 -0.728,-0.616 z m 0.586,2.809 c 0,0.221 -0.3,0.39 -0.455,0.254 -0.274,-0.209 0.475,-0.657 0.458,-0.258 z m -0.429,-0.545 c 0.053,0.124 -0.162,0.312 -0.358,0.312 -0.481,-0.093 0.24,-0.678 0.361,-0.316 z M 12.37,10.771 c -0.161,0.6 0.4,0.174 -0.374,1.058 -0.436,0.41 -0.5,0.969 -0.856,0.8 -0.192,-0.1 -0.9,0.485 -0.847,0.7 0.043,0.168 -0.149,0.318 -0.282,0.221 -0.192,-0.188 -0.75,0.5 -0.783,0.065 A 0.163,0.163 0 0 1 9.319,13.392 12.388,12.388 0 0 0 12.854,9 c 0.21,-0.357 0.6,-0.062 0.334,0.258 -0.135,0.233 -0.183,0.558 -0.055,0.379 a 37.594,37.594 0 0 1 4.8,3.081 c 0,0.091 -4.175,-2.672 -4.435,-2.854 -0.236,-0.293 -1.054,0.591 -1.121,0.891 0.608,0.319 3.187,1.743 3.4,1.8 -0.277,0.236 -3.234,-1.643 -3.407,-1.784 z m -1.847,2.439 c 0.474,0.562 4.444,2.093 5.157,2.5 -0.798,-0.463 -4.831,-1.646 -5.157,-2.5 z m 0.109,1.722 a 16.139,16.139 0 0 1 3.374,1.037 C 13.051,15.69 13.195,15.653 11.078,15.107 10.721,15.011 10.521,14.932 10.632,14.932 Z m -0.621,3.745 A 3.693,3.693 0 0 0 8.5,17.146 1.826,1.826 0 0 1 7.275,16.463 C 7.254,16.346 7.467,16.013 7.426,15.994 7.169,15.933 6.442,15.749 6.177,15.685 l 1.249,0.309 C 7.451,16 7.633,15.401 7.699,15.427 c 0.664,-0.057 3.628,1.11 4.429,1.139 -0.169,-0.24 1.224,0.494 1.093,-0.07 a 15.115,15.115 0 0 0 -2.105,-0.683 c -0.845,-0.231 -1.133,-0.34 -0.729,-0.276 a 22.368,22.368 0 0 1 3.46,1.116 c -0.192,1.148 -2.939,2.712 -3.9,3.48 -0.338,-0.157 0.136,-1.199 0.064,-1.456 z m 1.39,-2.431 c 0.446,0.182 -0.227,0 -0.283,-0.044 -0.203,-0.102 0.024,-0.066 0.282,0.044 z m -2.55,3.767 c -0.086,-0.309 1.044,0.415 0.545,0.416 -0.196,0 -0.545,-0.264 -0.545,-0.416 z M 8.84,17.82 A 1.205,1.205 0 0 1 8.222,17.438 C 8.093,17.075 9.49,17.952 8.84,17.82 Z M 7.475,6.07 c 0.01,-0.078 1.3,-1.481 1.418,-1.16 -0.125,0.19 0.3,-0.246 0.282,0 0,0.042 0.04,0.054 0.089,0.027 C 9.505,4.806 9.141,5.197 8.716,5.526 A 8.637,8.637 0 0 0 7.009,7.086 C 6.885,7.312 5.563,10.698 5.694,9.407 5.694,9.291 5.659,9.197 5.616,9.197 5.305,8.856 7.221,6.577 7.475,6.07 Z"/>

</svg>
